X:2630
L:1/8
M:3/8
K:G
"G" d2 G | (GF)G |"D" ABc | B2 A |"G" d2 G | GFG |"D" (AB)A |"G" G3 |"G" d2 d | (dc)B | BAG | 
 G2 F |"C" EFG |"G" D2 D |"Am" c2 c |"D" B2 A |"G" G2 z |"D" A2 z |"G" BcB |"D" A2 d |"G" B2 A | 
"G" G2 z |"D" A2 z |"G" BcB |"D" A2 d |"G" G3 |]"^Harmony""G" g2 d | d2 d |"D" cde | d2 d | 
"G" g2 d | d2 d |"D" cdc |"G" B3 |"G" B2 B | BAG | GGD | B,2 D |"C" CCE |"G" B,2 B, |"Am" A2 A | 
"D" D2 F |"G" B,2 z |"D" F2 z |"G" GAG |"D" F2 A |"G" G2 D |"G" B,2 z |"D" F2 z |"G" GAG | 
"D" F2 A |"G" D3 |]

